src/svg/upload.svg

<?xml version="1.0" encoding="UTF-8" standalone="no"?>
<svg width="24px" height="24px" viewBox="0 0 24 24" version="1.1" xmlns="http://www.w3.org/2000/svg" xmlns:xlink="http://www.w3.org/1999/xlink">
    <!-- Generator: Sketch 39.1 (31720) - http://www.bohemiancoding.com/sketch -->
    <title>upload</title>
    <desc>Created with Sketch.</desc>
    <defs></defs>
    <g>
        
      <path d="M12.708,0.2930219 C12.343,-0.0799781003 11.7,-0.1149781 11.293,0.2930219 L4.293,7.2920219 C3.902,7.6830219 3.902,8.3150219 4.293,8.7060219 C4.684,9.0970219 5.317,9.0970219 5.707,8.7060219 L11,3.4130219 L11,17.6080219 C11,18.1600219 11.448,18.6080219 12,18.6080219 C12.553,18.6080219 13,18.1600219 13,17.6080219 L13,3.4130219 L18.293,8.7060219 C18.684,9.0970219 19.317,9.0970219 19.707,8.7060219 C20.098,8.3150219 20.098,7.6820219 19.707,7.2920219 L12.708,0.2930219 Z M23,16.7180219 C22.447,16.7180219 22,17.1660219 22,17.7180219 L22,19.6310219 C22,20.6750219 21.119,22.0000219 20.13,22.0000219 L3.869,22.0000219 C2.88,22.0000219 2,20.6750219 2,19.6310219 L2,17.7180219 C2,17.1660219 1.552,16.7180219 1,16.7180219 C0.447,16.7180219 0,17.1660219 0,17.7180219 L0,19.6310219 C0,21.6930219 1.654,24.0000219 3.869,24.0000219 L20.13,24.0000219 C22.345,24.0000219 24,21.6930219 24,19.6310219 L24,17.7180219 C24,17.1660219 23.552,16.7180219 23,16.7180219 Z"></path>

    </g>
</svg>

<?xml version="1.0" encoding="utf-8"?>
<!-- Generator: Adobe Illustrator 21.0.2, SVG Export Plug-In . SVG Version: 6.00 Build 0)  -->
<svg version="1.1" id="Layer_1" xmlns="http://www.w3.org/2000/svg" xmlns:xlink="http://www.w3.org/1999/xlink" x="0px" y="0px"
	 viewBox="0 0 24 24" style="enable-background:new 0 0 24 24;" xml:space="preserve">
<title>upload</title>
<desc>Created with Sketch.</desc>
<g>
	<path d="M12.7,0.3c-0.4-0.4-1-0.4-1.4,0l-7,7c-0.4,0.4-0.4,1,0,1.4c0.4,0.4,1,0.4,1.4,0L11,3.4v14.2c0,0.6,0.4,1,1,1
		c0.6,0,1-0.4,1-1V3.4l5.3,5.3c0.4,0.4,1,0.4,1.4,0c0.4-0.4,0.4-1,0-1.4L12.7,0.3z M23,16.7c-0.6,0-1,0.4-1,1v1.9
		c0,1-0.9,2.4-1.9,2.4H3.9c-1,0-1.9-1.3-1.9-2.4v-1.9c0-0.6-0.4-1-1-1c-0.6,0-1,0.4-1,1v1.9C0,21.7,1.7,24,3.9,24h16.3
		c2.2,0,3.9-2.3,3.9-4.4v-1.9C24,17.2,23.6,16.7,23,16.7z"/>
</g>
</svg>
